X: 1
T: All Hands Around
M: 4/4
L: 1/8
R: reel
K: Gmaj
G2Be d2Be | d2Be dBg2 | GBde dBBB | AcBA GEDE |
G2Be d2Be | d2Be dBg2 | GBde dBBB | AcBA G2z2 :|
b2gb a2fa | gfeg fBB2 | b2gb a2gf | efga b2ga |
b2gb a2fa | gfeg fBB2 | Bcdf bagf |1g2fg efga :|2 g2fg edBA ||
